24x24/apps/com.interversehq.qView.svg

<svg xmlns="http://www.w3.org/2000/svg" width="24" height="24" version="1">
 <path style="opacity:0.2" d="m 12,2.5000002 c -5.5400001,0 -10,4.4599999 -10,9.9999998 0,5.54 4.4599999,10 10,10 5.54,0 10,-4.46 10,-10 C 22,6.9600001 17.54,2.5000002 12,2.5000002 Z"/>
 <path style="fill:#17191e" d="M 12,2.0000002 C 6.4599999,2.0000002 2,6.4600001 2,12 2,17.54 6.4599999,22 12,22 17.54,22 22,17.54 22,12 22,6.4600001 17.54,2.0000002 12,2.0000002 Z"/>
 <path style="opacity:0.1;fill:#f4f4f7" d="m 12,2.0000002 c -5.5395076,0 -9.9991111,4.4599999 -9.9991111,9.9999998 0,0.084 -0.002,0.1665 0,0.25 C 2.1330772,6.8270001 6.5444849,2.5000002 12,2.5000002 c 5.455515,0 9.867123,4.3269999 9.999111,9.7499998 0.002,-0.0835 0,-0.166 0,-0.25 0,-5.5399999 -4.459604,-9.9999998 -9.999111,-9.9999998 z"/>
 <path style="opacity:0.2;isolation:isolate" d="M 15.5,5.5 C 14.671573,5.5 14,6.1715729 14,7 14,7.8284271 14.671573,8.5 15.5,8.5 16.328427,8.5 17,7.8284271 17,7 17,6.1715729 16.328427,5.5 15.5,5.5 Z m -5.78125,4 C 9.5977465,9.50335 9.4794954,9.5492351 9.3964844,9.6425781 L 5.109375,14.125 C 5.054208,14.20505 5,14.311327 5,14.417969 v 1.628906 C 5,16.313605 5.191873,16.5 5.46875,16.5 H 18.529297 C 18.77833,16.5 19,16.28701 19,16.046875 v -1.173828 c 8.5e-4,-0.120572 -0.05086,-0.236372 -0.140625,-0.320313 l -3.125,-3.898734 c -0.193606,-0.160089 -0.470457,-0.186687 -0.664063,0 l -1.21875,1.924125 c -0.190251,0.160043 -0.47381,0.160043 -0.664062,0 L 10.060547,9.6171875 C 9.9637442,9.5371445 9.8397534,9.496675 9.71875,9.5 Z"/>
 <path style="isolation:isolate;fill:#f4f4f7" d="M 15.5,5 C 14.671573,5 14,5.6715729 14,6.5 14,7.3284271 14.671573,8 15.5,8 16.328427,8 17,7.3284271 17,6.5 17,5.6715729 16.328427,5 15.5,5 Z M 9.71875,9 C 9.5977465,9.00335 9.4794954,9.0492351 9.3964844,9.1425781 L 5.109375,13.625 C 5.054208,13.70505 5,13.811327 5,13.917969 v 1.628906 C 5,15.813605 5.191873,16 5.46875,16 H 18.529297 C 18.77833,16 19,15.78701 19,15.546875 v -1.173828 c 8.5e-4,-0.120572 -0.05086,-0.236372 -0.140625,-0.320313 l -3.125,-3.898734 c -0.193606,-0.160089 -0.470457,-0.186687 -0.664063,0 l -1.21875,1.924125 c -0.190251,0.160043 -0.47381,0.160043 -0.664062,0 L 10.060547,9.1171875 C 9.9637442,9.0371445 9.8397534,8.996675 9.71875,9 Z"/>
</svg>

<svg xmlns="http://www.w3.org/2000/svg" width="24" height="24" version="1"><path style="opacity:.2" d="M12 2.5c-5.54 0-10 4.46-10 10s4.46 10 10 10 10-4.46 10-10-4.46-10-10-10z"/><path style="fill:#17191e" d="M12 2C6.46 2 2 6.46 2 12s4.46 10 10 10 10-4.46 10-10S17.54 2 12 2z"/><path style="opacity:.1;fill:#f4f4f7" d="M12 2C6.46 2 2 6.46 2 12v.25A9.98 9.98 0 0 1 12 2.5a9.98 9.98 0 0 1 10 9.75V12c0-5.54-4.46-10-10-10z"/><path style="opacity:.2;isolation:isolate" d="M15.5 5.5a1.5 1.5 0 1 0 0 3 1.5 1.5 0 0 0 0-3zm-5.781 4a.442.442 0 0 0-.323.143L5.11 14.125a.546.546 0 0 0-.109.293v1.629c0 .267.192.453.469.453h13.06c.25 0 .471-.213.471-.453v-1.174c0-.12-.05-.236-.14-.32l-3.126-3.899c-.193-.16-.47-.187-.664 0l-1.218 1.924a.52.52 0 0 1-.665 0l-3.126-2.96a.518.518 0 0 0-.342-.118z"/><path style="isolation:isolate;fill:#f4f4f7" d="M15.5 5a1.5 1.5 0 1 0 0 3 1.5 1.5 0 0 0 0-3zM9.719 9a.442.442 0 0 0-.323.143L5.11 13.625a.546.546 0 0 0-.109.293v1.629c0 .267.192.453.469.453h13.06c.25 0 .471-.213.471-.453v-1.174c0-.12-.05-.236-.14-.32l-3.126-3.899c-.193-.16-.47-.187-.664 0l-1.218 1.924a.52.52 0 0 1-.665 0l-3.126-2.96A.518.518 0 0 0 9.719 9z"/></svg>
